public/icons/boxes.svg

<svg xmlns="http://www.w3.org/2000/svg" width="32" height="32" fill="none" viewBox="0 0 32 32">
  <path fill="#000" fill-rule="evenodd" d="M20.2 8.5H8.5v15h15V11.8c0-1.546-1.754-3.3-3.3-3.3ZM9 6.2A2.8 2.8 0 0 0 6.2 9v14A2.8 2.8 0 0 0 9 25.8h14a2.8 2.8 0 0 0 2.8-2.8V11.8a5.6 5.6 0 0 0-5.6-5.6H9Z" clip-rule="evenodd"/>
  <path fill="#000" fill-rule="evenodd" d="M13.2 2v5.6H11V2h2.2Zm5.6 11.2v5.6h-5.6v-5.6h5.6Zm-5.6 11.2V30H11v-5.6h2.2Zm7.8 0V30h-2.2v-5.6H21Zm3.4-4.9H30v2.1h-5.6v-2.1ZM2 18.8h5.6V21H2v-2.2ZM2 11h5.6v2.2H2V11Zm20.879-5.667A7 7 0 0 0 20.2 4.8V2.5c1.287 0 2.099.216 3.288.708a9.801 9.801 0 0 1 5.303 5.304c.493 1.19.709 2.001.709 3.288h-2.3a7.001 7.001 0 0 0-4.321-6.467Z" clip-rule="evenodd"/>
</svg>

<?xml version="1.0" encoding="UTF-8"?>
<svg id="Layer_1" data-name="Layer 1" xmlns="http://www.w3.org/2000/svg" version="1.1" viewBox="0 0 32 32">
  <defs>
    <style>
      .cls-1 {
        fill: #475467;
        fill-rule: evenodd;
        stroke-width: 0px;
      }
    </style>
  </defs>
  <path class="cls-1" d="M20.2,8.5h-11.7v15h15v-11.7c0-1.5-1.8-3.3-3.3-3.3ZM9,6.2c-1.5,0-2.8,1.3-2.8,2.8h0v14c0,1.5,1.3,2.8,2.8,2.8h14c1.5,0,2.8-1.3,2.8-2.8v-11.2c0-3.1-2.5-5.6-5.6-5.6h0s-11.2,0-11.2,0Z"/>
  <path class="cls-1" d="M13.2,2v5.6h-2.2V2h2.2ZM18.8,13.2v5.6h-5.6v-5.6s5.6,0,5.6,0ZM13.2,24.4v5.6h-2.2v-5.6s2.2,0,2.2,0ZM21,24.4v5.6h-2.2v-5.6h2.2ZM24.4,19.5h5.6v2.1h-5.6v-2.1ZM2,18.8h5.6v2.2H2v-2.2ZM2,11h5.6v2.2H2v-2.2ZM22.9,5.3c-.8-.4-1.8-.5-2.7-.5v-2.3c1.3,0,2.1.2,3.3.7,2.4,1,4.3,2.9,5.3,5.3.5,1.2.7,2,.7,3.3h-2.3c0-2.8-1.7-5.4-4.3-6.5Z"/>
</svg>
